X:1
T:James Gibb editions
T:Toss not my soul - Dowland
T:#
%%score [ 1 2 3 4 ]
L:1/8
Q:1/4=121
M:4/4
K:F
V:1 treble nm="Soprano" snm="S"
V:2 treble nm="Alto" snm="A"
V:3 treble-8 nm="Tenor" snm="T"
V:4 treble nm="Bass" snm="B"
V:1
"^John Dowland\n(1563-1626)" A8 | B4"^Toss not my soul" B4 | A8 | z4 A4 | d4 c4 | B6 B2 | A8 || %7
w: Toss|not my|soul,|O|Love, twixt|hope and|fear,|
w: |||||||
w: Take|me, As-|sur-|ance,|to thy|bliss- ful|hold,|
[M:4/4] z4 B4 | G6 (AB) | c6 B2 | A4 G4 | A6 A2 | G8 | z4 d4 | d4 d4 | d8 | z4 z2 d2 | e4 f4 | %18
w: Show|me some *|ground where|I may|firm- ly|stand,|or|sure- ly|fall,|I|care not|
w: |||||||||||
w: Or|thou, Des\- *|pair, un-|to thy|dark- est|cell,|Each|hath full|rest,|the|one in|
 e6 e2 | d8 | z8 | z4 d4 | c2 (B2 A2 G2) | ^F4 (G4- | A2 B2) c4- | c4 B4 | A6 A2 | G8 || z4 d4 | %29
w: which ap-|pear,||So|one will * *|close me|* * in|* a|cer- tain|band.||
w: ||||||||||When|
w: joys en-|rolled,||Th'o-|ther, in * *|that he|* * fears|* no|more, is|well.||
 _e4 e4 | d8 | d4 f4- | f2 e2 d4- | d2 (cB c4) | d8 | z4 d4 | d4 A2 c2 | (B2 A2) A4- | A2 G2 G4- | %39
w: |||||known,|The|strength of sor-|row * quite|* is o\-|
w: once of|ill|the ut\-|* ter- most|* is * *||||||
w: ||||||||||
 G4 ^F4 | G8 |] %41
w: * ver-|thrown.|
w: ||
w: ||
V:2
 ^F8 | G4 G4 | ^F8- | F4 =F4 | B4 A4 | D4 G4 | ^F4 (D4- ||[M:4/4] D2 EF) G2 F2 | (E6 FG) | A4 D4 | %10
w: Toss|not my|soul,|* O|Love, twixt|hope and|fear, Show|* * * me some|ground * *|where I|
w: ||||||||||
w: Take|me, As-|sur\-|* ance,|to thy|bliss- ful|hold, Or|* * * thou, Des-|pair, * *|un- to|
 D4 D4 | (D6 C2) | =B,4 z2 B2 | A4 G4 | ^F3 E (F2 G2) | (A4 B4) | A6 A2 | A4 A4 | A6 G2 | ^F4 B4 | %20
w: may firm-|ly *|stand, or|sure- ly|fall, or sure\- *|ly *|fall, I|care not|which ap-|pear, So|
w: ||||||||||
w: thy dark-|est *|cell, Each|hath full|rest, each hath *|full *|rest, the|one in|joys en-|rolled, Th'o-|
 A2 (G2 F2 _E2) | D6 F2 | _E2 (D2 !courtesy!_E4) | D6 D2 | C8 | D6 D2 | D6 C2 | =B,8 || G8 | %29
w: one will * *|close me|in a *|cer- tain|band,|in a|cer- tain|band.||
w: ||||||||When|
w: ther, in * *|that he|fears no *|more, is|well,|fears no|more, is|well.||
 G4 G4 | B8 | A4 A2 A2 | F4 G4 | A6 c2 | B2 B2 A4- | A2 G2 G4- | G4 ^F2 A2- | AD F4 E2 | ^F4 G4 | %39
w: |||||ut- ter most|* is known,|* The strength|* of sor- row|quite is|
w: once of|ill|the ut- ter-|most is|known, the||||||
w: ||||||||||
 D6 C2 | =B,8 |] %41
w: o- ver-|thrown.|
w: ||
w: ||
V:3
 d8 | (G3 A B2) c2 | d8 | z4 (d2 c2) | B4 F4 | G6 G2 | d2 e2 ^f3 (e/f/) || %7
w: Toss|not * * my|soul,|O *|Love, twixt|hope and|fear, twixt hope and *|
w: |||||||
w: Take|me, * * As-|sur-|ance, *|to thy|bliss- ful|hold, thy bliss- ful *|
[M:4/4][K:treble-8] g4 d4 | (c6 d2 | e2) f2 g2 G2 | A2 c2 B2 (G2- | G2 ^FE F4) | G2 d2 d2 d2 | %13
w: fear, Show|me *|* some ground where|I may firm- ly||stand, or sure- ly|
w: ||||||
w: hold, Or|thou, *|* Des- pair, un-|to thy dark- est||cell, Each hath full|
 d4 z2 B2 | A8 | z2 A2 d2 e2 | f6 f2 | e4 d4 | d4 ^c4 | d6 B2 | c2 c2 A2 A2 | B6 B2 | %22
w: fall, or|fall,|or sure- ly|fall, I|care not|which ap-|pear, I|care not which ap-|pear, So|
w: |||||||||
w: rest, full|rest,|each hath full|rest, the|one in|joys en-|rolled, the|one in joys en-|rolled, Th'o-|
 G2 (G2 c2 B2) | A4 z2 D2 | F4 E4 | (A6 G2) | (G2 ^FE F4) | G8 || =B8 | c4 c4 | B2 c2 d4- | %31
w: one will * *|close me|in a|cer\- *|tain * * *|band.||||
w: ||||||When|once of|ill the ut\-|
w: ther, in * *|that he|fears no|more, *|is * * *|well.||||
 d2 c2 A4 | z2 c2 d2 e2 | f2 (d2 e4) | d6 c2 | B4 B4 | A4 d4 | d4 (A2 c2) | B6 (cB) | A2 G2 A2 A2 | %40
w: |||ut- ter-|most is|known, The|strength of *|sor- row *|quite is o- ver-|
w: * ter- most,|when once of|ill the *|||||||
w: |||||||||
 G8 |] %41
w: thrown.|
w: |
w: |
V:4
[K:C] z8 | z8 | z8 | z8 | z8 | z8 | z8 ||[K:F][M:4/4][K:bass] (G,,6 A,,B,,) | C,6 B,,2 | %9
w: |||||||Show * *|me some|
w: |||||||||
w: |||||||Or * *|thou, Des-|
 A,,4 G,,4 | ^F,,4 G,,4 | D,6 D,2 | G,,6 G,2 | ^F,4 G,4 | D,6 E,2 | ^F,4 G,4 | D,6 D,2 | ^C,4 D,4 | %18
w: ground where|I may|firm- ly|stand, or|sure- ly|fall, or|sure- ly|fall, I|care not|
w: |||||||||
w: pair, un-|to thy|dark- est|cell, Each|hath full|rest, each|hath full|rest, the|one in|
 A,4 A,,4 | D,4 z2 G,2 | F,2 (_E,2 D,2 C,2) | B,,6 B,,2 | C,6 C,2 | D,4 (C,2 B,,2) | A,,6 G,,2 | %25
w: which ap-|pear, So|one will * *|close, so|one will|close, will *|close me|
w: |||||||
w: joys en-|rolled, Th'o-|ther, in * *|that, th'o-|ther, in|that he *|fears no|
 ^F,,4 G,,4 | D,6 D,2 | G,,8 || G,8 | (C,2 D,2 _E,2) C,2 | (G,2 A,2 B,2) C2 | D6 C2 | A,4 (B,4 | %33
w: in a|cer- tain|band.||||||
w: |||When|once * * of|ill * * the|ut- ter-|most is|
w: more, no|more is|well.||||||
 A,8) | D,4 F,4 | G,6 G,2 | D,4 D,4- | D,4 D,4- | D,4 D,4 | D,4 D,4 | G,,8 |] %41
w: |known, The|strength of|sor- row|* quite|* is|o- ver-|thrown.|
w: ||||||||
w: ||||||||

